X: 5
M:4/4
L:1/8
K:G
(3DEF|G2 FG EG D2|G2 BG dGBG|G2 FG EG D2|Beed BcAB|
eA (3AAA edBA|GFGA Bc d2|eA (3AAA edBc|d2 ef "tr"g2 fg|
eA (3AAA edBA|GFGA Bc d2|G2 GB A2 Ac|Beed "tr"B2 A2||

